design-system/icons/rate_review--labs-icons.svg

<svg width="21" height="20" viewBox="0 0 21 20" fill="none" xmlns="http://www.w3.org/2000/svg">
<g clip-path="url(#clip0_234_266)">
<mask id="mask0_234_266" style="mask-type:alpha" maskUnits="userSpaceOnUse" x="0" y="0" width="24" height="24">
<rect x="0.75" width="23.0833" height="23.0833" fill="currentColor"/>
</mask>
<g mask="url(#mask0_234_266)">
<path d="M6.52083 11.0863H7.89583C8.04861 11.0863 8.19097 11.0585 8.32292 11.003C8.45486 10.9474 8.57639 10.8641 8.6875 10.753L12.625 6.79465C12.7778 6.64187 12.8889 6.47173 12.9583 6.28423C13.0278 6.09673 13.0625 5.90576 13.0625 5.71131C13.0625 5.51687 13.0278 5.32937 12.9583 5.14881C12.8889 4.96826 12.7778 4.80159 12.625 4.64881L11.8542 3.85715C11.7014 3.70437 11.5313 3.59326 11.3438 3.52381C11.1563 3.45437 10.9653 3.41965 10.7708 3.41965C10.5764 3.41965 10.3889 3.45437 10.2083 3.52381C10.0278 3.59326 9.86111 3.70437 9.70833 3.85715L5.75 7.81548C5.63889 7.92659 5.55556 8.04812 5.5 8.18007C5.44444 8.31201 5.41667 8.45437 5.41667 8.60715V9.98215C5.41667 10.2877 5.52431 10.5481 5.73958 10.7634C5.95486 10.9787 6.21528 11.0863 6.52083 11.0863ZM11.5417 5.73215L10.9375 6.37798L10.1458 5.58631L10.7708 4.96131L11.5417 5.73215ZM10.375 11.0863H14.9792C15.2847 11.0863 15.5451 10.9787 15.7604 10.7634C15.9757 10.5481 16.0833 10.2877 16.0833 9.98215C16.0833 9.67659 15.9757 9.41618 15.7604 9.2009C15.5451 8.98562 15.2847 8.87798 14.9792 8.87798H12.5833L10.375 11.0863ZM5.625 14.753L3.625 16.753C3.27778 17.1002 2.87847 17.1766 2.42708 16.9821C1.97569 16.7877 1.75 16.4474 1.75 15.9613V2.37798C1.75 1.76687 1.96528 1.24604 2.39583 0.815481C2.82639 0.384925 3.34722 0.169647 3.95833 0.169647H17.5417C18.1528 0.169647 18.6736 0.384925 19.1042 0.815481C19.5347 1.24604 19.75 1.76687 19.75 2.37798V12.5446C19.75 13.1558 19.5347 13.6766 19.1042 14.1071C18.6736 14.5377 18.1528 14.753 17.5417 14.753H5.625Z" fill="currentColor"/>
</g>
</g>
<defs>
<clipPath id="clip0_234_266">
<rect width="20" height="20" fill="white" transform="translate(0.75)"/>
</clipPath>
</defs>
</svg>

<svg xmlns="http://www.w3.org/2000/svg" width="21" height="20" fill="none" viewBox="0 0 21 20"><g clip-path="url(#a)"><mask id="b" width="24" height="24" x="0" y="0" maskUnits="userSpaceOnUse" style="mask-type:alpha"><path fill="currentColor" d="M.75 0h23.083v23.083H.75z"/></mask><g mask="url(#b)"><path fill="currentColor" d="M6.52 11.086h1.376a1.1 1.1 0 0 0 .792-.333l3.937-3.958a1.4 1.4 0 0 0 .333-.51q.104-.282.104-.574t-.104-.562q-.104-.27-.333-.5l-.77-.792a1.4 1.4 0 0 0-.511-.333 1.6 1.6 0 0 0-.573-.104q-.292 0-.563.104t-.5.333L5.75 7.815a1.09 1.09 0 0 0-.333.792v1.375q0 .459.323.781.322.324.78.323m5.022-5.354-.604.646-.792-.792.625-.625zm-1.167 5.354h4.604q.459 0 .781-.323.324-.323.323-.78 0-.46-.323-.782a1.06 1.06 0 0 0-.78-.323h-2.397zm-4.75 3.667-2 2q-.521.52-1.198.23-.677-.293-.677-1.022V2.378q0-.917.646-1.563Q3.04.17 3.958.17h13.584q.916 0 1.562.645.645.647.646 1.563v10.167q0 .916-.646 1.562-.645.645-1.562.646z"/></g></g><defs><clipPath id="a"><path fill="#fff" d="M.75 0h20v20h-20z"/></clipPath></defs></svg>
